X:3464
T:Cote Pile
D:transcribed from: CD "Spin", PANIC ATC, PATCCD20294
G:Whirling Pope Joan 
Z:abc transcription Simon Wascher
N:please mail errors to simon.wascher@chello.at
M:2/4
L:1/8
K:Gm
A2 AA|GA B2|GG FG|AB G2|
A2 AA|GA B2|GG FG|AB GF||
DG GF|GB AG|FE D2|DG GF|
GA BG|A2 GF|DG GF|GB AG|
FE D2|DG GF|GA BG|A2 G2||


